X: 727
T: Laughing Boy
C:Kenny Baker learned it from Benny Thommasson
B: jims roots
M:C|
L:1/8
Q: 1/4=100
K:A
V:1 
|:"A"[ce][e2e][ef][e2e]cd | efec BcAB | cecB AFEB, | "F#m"C2[C2F]-[C2F] [F2A] |
"A"AceA ceAc | efec BcAB | "E"cecB AFEC | "A"B,2 A,6 :|
|:"A"[E4c]-[E3c]B | cBAc BAcB | AFAB cBAB | "F#m"c2 [c2f]-[c2f][A2e] |
"A"[EB][E3c]-[E3c] B | cBAc BAcB | A2F2 "E"EFAc | "A"B2A6 :|
% abcbook-tune_id 6298c25d5872bbddae910e57


% abcbook-boost 0
% abcbook-tablature 
% abcbook-transpose 
% abcbook-lastupdated 1654178399643
% abcbook-soundfonts 
% abcbook-repeats 1


